dist/svg/conference-fill.svg

<svg xmlns="http://www.w3.org/2000/svg" viewBox="0 0 24 24"><path d="M10.617 2.283c-.585.069-1.098.328-1.552.781a2.7 2.7 0 0 0-.692 1.116c-.148.45-.156 1.139-.019 1.579.115.366.235.608.429.863.09.117.13.2.102.21-.113.037-.535.389-.794.661-.661.696-1.034 1.474-1.274 2.657-.018.086-.036.09-.428.091-.625.001-.823.07-1.016.354-.349.513.057 1.164.727 1.165h.16l-.011 4.13c-.008 2.856.002 4.21.032 4.39.024.143.087.356.14.473.115.252.523.677.774.804.393.201.411.202 4.805.202s4.412-.001 4.805-.202c.251-.127.659-.552.774-.804a2.3 2.3 0 0 0 .14-.473c.03-.18.04-1.534.032-4.39l-.011-4.13h.16c.453-.001.764-.239.84-.645.053-.286-.122-.642-.384-.777a1.3 1.3 0 0 0-.355-.084l-.241-.025V9.084c0-.704-.017-1.206-.044-1.304-.035-.127-.17-.288-.65-.773-.333-.337-.66-.642-.726-.677-.154-.081-.525-.081-.68 0-.226.118-.42.413-.42.639.001.271.087.41.544.873l.456.462v1.936h-.519c-.507 0-.52-.002-.538-.09-.24-1.183-.613-1.961-1.274-2.657-.259-.272-.681-.624-.794-.661-.028-.01.012-.093.102-.21.194-.255.314-.497.429-.863.137-.44.129-1.129-.018-1.579-.424-1.293-1.642-2.06-3.011-1.897m.911 1.59c.239.117.481.359.599.599.133.27.133.787 0 1.057-.464.943-1.795.943-2.252 0a1.43 1.43 0 0 1-.074-.871c.097-.348.43-.703.785-.838.232-.088.708-.061.942.053m.238 3.981c.411.132.652.284.998.626.296.294.372.399.549.76.113.231.241.55.284.71l.078.29h-5.35l.078-.29c.043-.16.171-.479.284-.71.177-.361.253-.466.549-.76.42-.417.651-.54 1.304-.697.162-.039 1.044.012 1.226.071" fill-rule="evenodd"/></svg>

<svg fill="none" xmlns="http://www.w3.org/2000/svg" viewBox="0 0 24 24"><path d="M10.617 2.283 C 10.032 2.352,9.519 2.611,9.065 3.064 C 8.729 3.399,8.517 3.740,8.373 4.180 C 8.225 4.630,8.217 5.319,8.354 5.759 C 8.469 6.125,8.589 6.367,8.783 6.622 C 8.873 6.739,8.913 6.822,8.885 6.832 C 8.772 6.869,8.350 7.221,8.091 7.493 C 7.430 8.189,7.057 8.967,6.817 10.150 C 6.799 10.236,6.781 10.240,6.389 10.241 C 5.764 10.242,5.566 10.311,5.373 10.595 C 5.024 11.108,5.430 11.759,6.100 11.760 L 6.260 11.760 6.249 15.890 C 6.241 18.746,6.251 20.100,6.281 20.280 C 6.305 20.423,6.368 20.636,6.421 20.753 C 6.536 21.005,6.944 21.430,7.195 21.557 C 7.588 21.758,7.606 21.759,12.000 21.759 C 16.394 21.759,16.412 21.758,16.805 21.557 C 17.056 21.430,17.464 21.005,17.579 20.753 C 17.632 20.636,17.695 20.423,17.719 20.280 C 17.749 20.100,17.759 18.746,17.751 15.890 L 17.740 11.760 17.900 11.760 C 18.353 11.759,18.664 11.521,18.740 11.115 C 18.793 10.829,18.618 10.473,18.356 10.338 C 18.293 10.306,18.134 10.268,18.001 10.254 L 17.760 10.229 17.760 9.084 C 17.760 8.380,17.743 7.878,17.716 7.780 C 17.681 7.653,17.546 7.492,17.066 7.007 C 16.733 6.670,16.406 6.365,16.340 6.330 C 16.186 6.249,15.815 6.249,15.660 6.330 C 15.434 6.448,15.240 6.743,15.240 6.969 C 15.241 7.240,15.327 7.379,15.784 7.842 L 16.240 8.304 16.240 9.272 L 16.240 10.240 15.721 10.240 C 15.214 10.240,15.201 10.238,15.183 10.150 C 14.943 8.967,14.570 8.189,13.909 7.493 C 13.650 7.221,13.228 6.869,13.115 6.832 C 13.087 6.822,13.127 6.739,13.217 6.622 C 13.411 6.367,13.531 6.125,13.646 5.759 C 13.783 5.319,13.775 4.630,13.628 4.180 C 13.204 2.887,11.986 2.120,10.617 2.283 M11.528 3.873 C 11.767 3.990,12.009 4.232,12.127 4.472 C 12.260 4.742,12.260 5.259,12.127 5.529 C 11.663 6.472,10.332 6.472,9.875 5.529 C 9.764 5.300,9.730 4.909,9.801 4.658 C 9.898 4.310,10.231 3.955,10.586 3.820 C 10.818 3.732,11.294 3.759,11.528 3.873 M11.766 7.854 C 12.177 7.986,12.418 8.138,12.764 8.480 C 13.060 8.774,13.136 8.879,13.313 9.240 C 13.426 9.471,13.554 9.790,13.597 9.950 L 13.675 10.240 11.000 10.240 L 8.325 10.240 8.403 9.950 C 8.446 9.790,8.574 9.471,8.687 9.240 C 8.864 8.879,8.940 8.774,9.236 8.480 C 9.656 8.063,9.887 7.940,10.540 7.783 C 10.702 7.744,11.584 7.795,11.766 7.854 " stroke="none" fill-rule="evenodd" fill="currentColor"/></svg>
